svg/blobs-icons/no-decorations/diving-tank.svg

<svg xmlns="http://www.w3.org/2000/svg" xmlns:xlink="http://www.w3.org/1999/xlink" preserveAspectRatio="xMidYMid" width="123" height="217" viewBox="0 0 123 217"><defs><style>.cls-3{fill:#142a3b}.cls-6{fill:#ff3a2f}.cls-8{fill:#fff}.cls-9{fill:#020403;opacity:.35}.cls-18{fill:#fbb713}</style></defs><g id="group-24svg"><path d="M122.317 159.85C122.317 167.783 115.885 174.214 107.952 174.214 100.019 174.214 93.588 167.783 93.588 159.85S100.019 145.485 107.952 145.485C115.885 145.485 122.317 151.917 122.317 159.85z" id="path-1" class="cls-3" fill-rule="evenodd"/><path d="M75.742 177.697s-74.742.0-74.742.0.0-75.741.0-75.741 74.742.0 74.742.0.0 75.741.0 75.741z" id="path-2" class="cls-3" fill-rule="evenodd"/><path d="M52.567 143.442s-30.249.0-30.249.0c-1.996.0-3.614-1.618-3.614-3.61500000000001C18.704 137.832 20.322 136.212 22.318 136.212H52.567c1.996.0 3.615 1.62 3.615 3.61500000000001C56.182 141.824 54.563 143.442 52.567 143.442z" id="path-3" class="cls-3" fill-rule="evenodd"/><path d="M122.317 159.85C122.317 167.783 115.885 174.214 107.952 174.214 100.019 174.214 93.588 167.783 93.588 159.85S100.019 145.485 107.952 145.485C115.885 145.485 122.317 151.917 122.317 159.85z" id="path-4" class="cls-6" fill-rule="evenodd"/><path d="M37.872 46.806c-1.995.0-3.615-1.619-3.615-3.616V7.962c0-1.997 1.62-3.615 3.615-3.615 1.996.0 3.614 1.618 3.614 3.615V43.19c0 1.997-1.618 3.616-3.614 3.616z" id="path-5" class="cls-3" fill-rule="evenodd"/><path d="M108.113 155.498c0 2.49200000000002-2.021 4.512-4.512 4.512C101.108 160.01 99.088 157.99 99.088 155.498 99.088 153.005 101.108 150.985 103.601 150.985 106.092 150.985 108.113 153.005 108.113 155.498z" id="path-6" class="cls-8" fill-rule="evenodd"/><path d="M115.677 147.772C117.11 150.007 117.964 152.647 117.964 155.498c0 7.93300000000002-6.431 14.363-14.363 14.363C100.75 169.861 98.109 169.007 95.876 167.574 98.428 171.558 102.87 174.214 107.952 174.214 115.885 174.214 122.317 167.783 122.317 159.85 122.317 154.768 119.662 150.326 115.677 147.772z" id="path-7" class="cls-9" fill-rule="evenodd"/><path d="M.004 216.873s75.738.0 75.738.0.0-141.034.0-141.034c0-20.915-16.955-37.869-37.87-37.869C16.958 37.97.004 54.924.004 75.839V216.873z" id="path-8" class="cls-3" fill-rule="evenodd"/><path d="M37.872 42.454c-1.995.0-3.615-1.619-3.615-3.615V3.609c0-1.996 1.62-3.615 3.615-3.615 1.996.0 3.614 1.619 3.614 3.615v35.23c0 1.996-1.618 3.615-3.614 3.615z" id="path-9" class="cls-3" fill-rule="evenodd"/><path d="M107.745 149.1C105.749 149.1 104.13 147.481 104.13 145.485V70.513c0-26.385-21.464-47.851-47.85-47.851H19.705c-1.996.0-3.614-1.618-3.614-3.614.0-1.997 1.618-3.615 3.614-3.615H56.28c30.371.0 55.08 24.709 55.08 55.08v74.972C111.36 147.481 109.741 149.1 107.745 149.1z" id="path-10" class="cls-3" fill-rule="evenodd"/><path d="M.004 216.873s75.738.0 75.738.0.0-141.034.0-141.034c0-20.915-16.955-37.869-37.87-37.869C16.958 37.97.004 54.924.004 75.839V216.873z" id="path-11" class="cls-6" fill-rule="evenodd"/><path d="M37.872 37.969C34.873 37.969 31.967 38.355 29.169 39.015 45.88 42.952 58.333 57.926 58.333 75.839V216.873s17.409.0 17.409.0.0-141.034.0-141.034c0-20.915-16.955-37.87-37.87-37.87z" id="path-12" class="cls-9" fill-rule="evenodd"/><path d="M49.759 19.396c0 6.259-5.074 11.334-11.335 11.334-6.26.0-11.335-5.075-11.335-11.334.0-6.261 5.075-11.336 11.335-11.336 6.261.0 11.335 5.075 11.335 11.336z" id="path-13" class="cls-6" fill-rule="evenodd"/><path d="M38.601 8.077c1.513 1.927 2.454 4.326 2.454 6.966.0 6.259-5.075 11.335-11.335 11.335C29.659 26.378 29.603 26.361 29.543 26.361c2.075 2.641 5.261 4.369 8.881 4.369 6.261.0 11.335-5.075 11.335-11.334.0-6.2-4.982-11.222-11.158-11.319z" id="path-14" class="cls-9" fill-rule="evenodd"/><path d="M37.983 16.223c0 2.22-1.799 4.018-4.019 4.018-2.218.0-4.017-1.798-4.017-4.018.0-2.22 1.799-4.019 4.017-4.019 2.22.0 4.019 1.799 4.019 4.019z" id="path-15" class="cls-8" fill-rule="evenodd"/><path d="M75.742 177.697s-75.738.0-75.738.0.0-75.741.0-75.741 75.738.0 75.738.0.0 75.741.0 75.741z" id="path-16" class="cls-18" fill-rule="evenodd"/><path d="M58.333 101.956s0 75.741.0 75.741 17.409.0 17.409.0.0-75.741.0-75.741-17.409.0-17.409.0z" id="path-17" class="cls-9" fill-rule="evenodd"/><path d="M52.567 143.442s-30.249.0-30.249.0c-1.996.0-3.614-1.618-3.614-3.61500000000001C18.704 137.832 20.322 136.212 22.318 136.212H52.567c1.996.0 3.615 1.62 3.615 3.61500000000001C56.182 141.824 54.563 143.442 52.567 143.442z" id="path-18" class="cls-3" fill-rule="evenodd"/><path d="M7.606 156.64C5.609 156.64 3.991 155.021 3.991 153.025V83.38c0-14.047 7.024-27.031 18.79-34.733 1.674-1.093 3.912-.625 5.006 1.045 1.093 1.67.625 3.91-1.045 5.003C17.023 61.057 11.22 71.78 11.22 83.38v69.645C11.22 155.021 9.601 156.64 7.606 156.64z" id="path-19" class="cls-8" fill-rule="evenodd"/></g></svg>

<svg xmlns="http://www.w3.org/2000/svg" xmlns:xlink="http://www.w3.org/1999/xlink" preserveAspectRatio="xMidYMid" width="123" height="217" viewBox="0 0 123 217">
  <defs>
    <style>

      .cls-3 {
        fill: #142a3b;
      }

      .cls-6 {
        fill: #ff3a2f;
      }

      .cls-8 {
        fill: #ffffff;
      }

      .cls-9 {
        fill: #020403;
        opacity: 0.35;
      }

      .cls-18 {
        fill: #fbb713;
      }
    </style>
  </defs>
  <g id="group-24svg">
    <path d="M122.317,159.850 C122.317,167.783 115.885,174.214 107.952,174.214 C100.019,174.214 93.588,167.783 93.588,159.850 C93.588,151.917 100.019,145.485 107.952,145.485 C115.885,145.485 122.317,151.917 122.317,159.850 Z" id="path-1" class="cls-3" fill-rule="evenodd"/>
    <path d="M75.742,177.697 C75.742,177.697 1.000,177.697 1.000,177.697 C1.000,177.697 1.000,101.956 1.000,101.956 C1.000,101.956 75.742,101.956 75.742,101.956 C75.742,101.956 75.742,177.697 75.742,177.697 Z" id="path-2" class="cls-3" fill-rule="evenodd"/>
    <path d="M52.567,143.442 C52.567,143.442 22.318,143.442 22.318,143.442 C20.322,143.442 18.704,141.824 18.704,139.827 C18.704,137.832 20.322,136.212 22.318,136.212 C22.318,136.212 52.567,136.212 52.567,136.212 C54.563,136.212 56.182,137.832 56.182,139.827 C56.182,141.824 54.563,143.442 52.567,143.442 Z" id="path-3" class="cls-3" fill-rule="evenodd"/>
    <path d="M122.317,159.850 C122.317,167.783 115.885,174.214 107.952,174.214 C100.019,174.214 93.588,167.783 93.588,159.850 C93.588,151.917 100.019,145.485 107.952,145.485 C115.885,145.485 122.317,151.917 122.317,159.850 Z" id="path-4" class="cls-6" fill-rule="evenodd"/>
    <path d="M37.872,46.806 C35.877,46.806 34.257,45.187 34.257,43.190 C34.257,43.190 34.257,7.962 34.257,7.962 C34.257,5.965 35.877,4.347 37.872,4.347 C39.868,4.347 41.486,5.965 41.486,7.962 C41.486,7.962 41.486,43.190 41.486,43.190 C41.486,45.187 39.868,46.806 37.872,46.806 Z" id="path-5" class="cls-3" fill-rule="evenodd"/>
    <path d="M108.113,155.498 C108.113,157.990 106.092,160.010 103.601,160.010 C101.108,160.010 99.088,157.990 99.088,155.498 C99.088,153.005 101.108,150.985 103.601,150.985 C106.092,150.985 108.113,153.005 108.113,155.498 Z" id="path-6" class="cls-8" fill-rule="evenodd"/>
    <path d="M115.677,147.772 C117.110,150.007 117.964,152.647 117.964,155.498 C117.964,163.431 111.533,169.861 103.601,169.861 C100.750,169.861 98.109,169.007 95.876,167.574 C98.428,171.558 102.870,174.214 107.952,174.214 C115.885,174.214 122.317,167.783 122.317,159.850 C122.317,154.768 119.662,150.326 115.677,147.772 Z" id="path-7" class="cls-9" fill-rule="evenodd"/>
    <path d="M0.004,216.873 C0.004,216.873 75.742,216.873 75.742,216.873 C75.742,216.873 75.742,75.839 75.742,75.839 C75.742,54.924 58.787,37.970 37.872,37.970 C16.958,37.970 0.004,54.924 0.004,75.839 C0.004,75.839 0.004,216.873 0.004,216.873 Z" id="path-8" class="cls-3" fill-rule="evenodd"/>
    <path d="M37.872,42.454 C35.877,42.454 34.257,40.835 34.257,38.839 C34.257,38.839 34.257,3.609 34.257,3.609 C34.257,1.613 35.877,-0.006 37.872,-0.006 C39.868,-0.006 41.486,1.613 41.486,3.609 C41.486,3.609 41.486,38.839 41.486,38.839 C41.486,40.835 39.868,42.454 37.872,42.454 Z" id="path-9" class="cls-3" fill-rule="evenodd"/>
    <path d="M107.745,149.100 C105.749,149.100 104.130,147.481 104.130,145.485 C104.130,145.485 104.130,70.513 104.130,70.513 C104.130,44.128 82.666,22.662 56.280,22.662 C56.280,22.662 19.705,22.662 19.705,22.662 C17.709,22.662 16.091,21.044 16.091,19.048 C16.091,17.051 17.709,15.433 19.705,15.433 C19.705,15.433 56.280,15.433 56.280,15.433 C86.651,15.433 111.360,40.142 111.360,70.513 C111.360,70.513 111.360,145.485 111.360,145.485 C111.360,147.481 109.741,149.100 107.745,149.100 Z" id="path-10" class="cls-3" fill-rule="evenodd"/>
    <path d="M0.004,216.873 C0.004,216.873 75.742,216.873 75.742,216.873 C75.742,216.873 75.742,75.839 75.742,75.839 C75.742,54.924 58.787,37.970 37.872,37.970 C16.958,37.970 0.004,54.924 0.004,75.839 C0.004,75.839 0.004,216.873 0.004,216.873 Z" id="path-11" class="cls-6" fill-rule="evenodd"/>
    <path d="M37.872,37.969 C34.873,37.969 31.967,38.355 29.169,39.015 C45.880,42.952 58.333,57.926 58.333,75.839 C58.333,75.839 58.333,216.873 58.333,216.873 C58.333,216.873 75.742,216.873 75.742,216.873 C75.742,216.873 75.742,75.839 75.742,75.839 C75.742,54.924 58.787,37.969 37.872,37.969 Z" id="path-12" class="cls-9" fill-rule="evenodd"/>
    <path d="M49.759,19.396 C49.759,25.655 44.685,30.730 38.424,30.730 C32.164,30.730 27.089,25.655 27.089,19.396 C27.089,13.135 32.164,8.060 38.424,8.060 C44.685,8.060 49.759,13.135 49.759,19.396 Z" id="path-13" class="cls-6" fill-rule="evenodd"/>
    <path d="M38.601,8.077 C40.114,10.004 41.055,12.403 41.055,15.043 C41.055,21.302 35.980,26.378 29.720,26.378 C29.659,26.378 29.603,26.361 29.543,26.361 C31.618,29.002 34.804,30.730 38.424,30.730 C44.685,30.730 49.759,25.655 49.759,19.396 C49.759,13.196 44.777,8.174 38.601,8.077 Z" id="path-14" class="cls-9" fill-rule="evenodd"/>
    <path d="M37.983,16.223 C37.983,18.443 36.184,20.241 33.964,20.241 C31.746,20.241 29.947,18.443 29.947,16.223 C29.947,14.003 31.746,12.204 33.964,12.204 C36.184,12.204 37.983,14.003 37.983,16.223 Z" id="path-15" class="cls-8" fill-rule="evenodd"/>
    <path d="M75.742,177.697 C75.742,177.697 0.004,177.697 0.004,177.697 C0.004,177.697 0.004,101.956 0.004,101.956 C0.004,101.956 75.742,101.956 75.742,101.956 C75.742,101.956 75.742,177.697 75.742,177.697 Z" id="path-16" class="cls-18" fill-rule="evenodd"/>
    <path d="M58.333,101.956 C58.333,101.956 58.333,177.697 58.333,177.697 C58.333,177.697 75.742,177.697 75.742,177.697 C75.742,177.697 75.742,101.956 75.742,101.956 C75.742,101.956 58.333,101.956 58.333,101.956 Z" id="path-17" class="cls-9" fill-rule="evenodd"/>
    <path d="M52.567,143.442 C52.567,143.442 22.318,143.442 22.318,143.442 C20.322,143.442 18.704,141.824 18.704,139.827 C18.704,137.832 20.322,136.212 22.318,136.212 C22.318,136.212 52.567,136.212 52.567,136.212 C54.563,136.212 56.182,137.832 56.182,139.827 C56.182,141.824 54.563,143.442 52.567,143.442 Z" id="path-18" class="cls-3" fill-rule="evenodd"/>
    <path d="M7.606,156.640 C5.609,156.640 3.991,155.021 3.991,153.025 C3.991,153.025 3.991,83.380 3.991,83.380 C3.991,69.333 11.015,56.349 22.781,48.647 C24.455,47.554 26.693,48.022 27.787,49.692 C28.880,51.362 28.412,53.602 26.742,54.695 C17.023,61.057 11.220,71.780 11.220,83.380 C11.220,83.380 11.220,153.025 11.220,153.025 C11.220,155.021 9.601,156.640 7.606,156.640 Z" id="path-19" class="cls-8" fill-rule="evenodd"/>
  </g>
</svg>
